!!!!SEGMENT: pl-wn--mus-iii-95-102_zelenski-wladyslaw--nocna-jazda.krn
!!!cenid: 18xx:3776
!!!COM: Żeleński, Władysław
!!!COM-rismID: pe41024455
!!!CDT: 1837/07/06-1921/01/23
!!!CNT: Polish
!!!OTL: Nocna jazda
!!!PDT:
!!!AGN:
!!!SMS-siglum: PL-Wn
!!!SMS-shelfmark: Mus.III.95.102
!!!SMS-shelfwork: W
!!!SMS-variant:
!!!SMS-altvar:
!!!NIFC-rismSourceID:
!!!NIFC-rismChildID:
!!!NIFC-islandoraID: none
!!!URL-pdf-islandora:
!!!URL-scan: https://polona2.pl/item/2-piesni-nr-2-nocna-jazda-wedlug-heinego,NzQ4OTYwNzg/0 @EN{Scan on Polona} @PL{Skany w portalu Polona}
!!!IIIF: https://polona2.pl/iiif/item/NzQ4OTYwNzg/manifest.json
!!!ONB-nifc:
!!!OMD: Andante.
!!!AIN: 1 piano 1 vox
!!!key: f
**kern	**kern	**dynam	**kern	**text	**dynam
*part2	*part2	*part2	*part1	*part1	*part1
*staff3	*staff2	*	*staff1	*staff1	*
*I"FORTEPIAN.	*I"FORTEPIAN.	*	*I"ŚPIEW.	*	*
*Ipiano	*Ipiano	*	*Ivox	*	*
*ICklav	*ICklav	*	*ICvox	*	*
*clefF4	*clefG2	*	*clefG2	*	*
*k[b-e-a-d-]	*k[b-e-a-d-]	*	*k[b-e-a-d-]	*	*
*f:	*f:	*	*f:	*	*
*M4/4	*M4/4	*	*M4/4	*	*
*met(c)	*met(c)	*	*met(c)	*	*
=1	=1	=1	=1	=1	=1
*Xtuplet	*	*	*	*	*
*xywh-3:160,1539,2698,549	*xywh-3:160,1539,2698,549	*	*xywh-3:160,361,2712,1198	*	*
12F\L	1r	pp	1r	.	.
12F\	.	.	.	.	.
12F\J	.	.	.	.	.
12F\L 12G	.	.	.	.	.
12F\ 12G	.	.	.	.	.
12F\J 12G	.	.	.	.	.
*tremolo	*	*	*	*	*
12F\L 12A-	.	.	.	.	.
12F\ 12A-	.	.	.	.	.
12F\ 12A-	.	.	.	.	.
12F\ 12A-	.	.	.	.	.
12F\ 12A-	.	.	.	.	.
12F\J 12A-	.	.	.	.	.
*Xtremolo	*	*	*	*	*
=2	=2	=2	=2	=2	=2
!LO:TX:b:i:t=un poco stringendo.	!	!	!	!	!
12F\L 12G	4r	.	1r	.	.
12F\ 12G	.	.	.	.	.
12F\J 12G	.	.	.	.	.
12F\L 12A-	(4ff\	<	.	.	.
12F\ 12A-	.	.	.	.	.
12F\J 12A-	.	.	.	.	.
12G\L 12B- 12d-	4f/	.	.	.	.
12G\ 12B- 12d-	.	.	.	.	.
12G\J 12B- 12d-	.	.	.	.	.
12G\L 12B- 12d-	4en/)	.	.	.	.
12G\ 12B- 12d-	.	.	.	.	.
12G\J 12B- 12d-	.	.	.	.	.
*clefG2	*	*	*	*	*
=3	=3	=3	=3	=3	=3
12A-/L 12c	4r	.	1r	.	.
12A-/ 12c	.	.	.	.	.
12A-/J 12c	.	.	.	.	.
12A-/L 12c 12dn	(4aa-\	.	.	.	.
12A-/ 12c 12d	.	.	.	.	.
12A-/J 12c 12d	.	.	.	.	.
12B-/L 12d-X 12en	4a-/	.	.	.	.
12B-/ 12d- 12e	.	.	.	.	.
12B-/J 12d- 12e	.	.	.	.	.
12B-/L 12d- 12e	4g/)	.	.	.	.
12B-/ 12d- 12e	.	.	.	.	.
12B-/J 12d- 12e	.	.	.	.	.
!!LO:LB:g=original
=4	=4	=4	=4	=4	=4
*xywh-3:117,2304,2682,559	*xywh-3:117,2304,2682,559	*	*xywh-3:170,2059,2669,312	*	*
12A-/L 12c 12f	4r	.	1r	.	.
12A-/ 12c 12f	.	.	.	.	.
12A-/J 12c 12f	.	.	.	.	.
12A-/L 12c 12g	(4ccc\	.	.	.	.
12A-/ 12c 12g	.	.	.	.	.
12A-/J 12c 12g	.	.	.	.	.
12dn/L 12f 12a-	4cc\	.	.	.	.
12d/ 12f 12a-	.	.	.	.	.
12d/J 12f 12a-	.	.	.	.	.
12d/L 12f 12a-	4bn\)	[[	.	.	.
12d/ 12f 12a-	.	.	.	.	.
12d/J 12f 12a-	.	.	.	.	.
=5	=5	=5	=5	=5	=5
*	*	*^	*	*	*
!LO:TX:b:i:t=riten&colon;	!	!	!LO:HP:b=2	!	!	!
12en/L 12g	4r	.	<	1r	.	.
12e/ 12g	.	.	.	.	.	.
12e/J 12g	.	.	.	.	.	.
12e/L 12g	(4cc\	>	.	.	.	.
12e/ 12g	.	.	.	.	.	.
12e/J 12g	.	.	.	.	.	.
12e/L 12g	4c/)	.	.	.	.	.
12e/ 12g	.	.	.	.	.	.
12e/J 12g	.	.	.	.	.	.
*	*clefF4	*	*	*	*	*
*	*Xtuplet	*	*	*	*	*
4r	12En\L 12G	.	.	.	.	.
.	12E\ 12G	.	.	.	.	.
.	12E\J 12G	]]	[[	.	.	.
*	*	*v	*v	*	*	*
*clefF4	*	*	*	*	*
=6	=6	=6	=6	=6	=6
!LO:TX:b:i:t=a tempo e molto tranquillo.	!	!	!	!	!
4r	12F\L 12A-	] pp	4r	.	.
.	12F\ 12A-	.	.	.	.
.	12F\J 12A-	.	.	.	.
!	!	!	!	!	!LO:DY:a:rj
(4C/	12F\L 12A-	.	(4cc\	Z_mo-	p
.	12F\ 12A-	.	.	.	.
.	12F\J 12A-	.	.	.	.
2FF/)	12F\L 12A-	.	4.dd-\)	.	.
.	12F\ 12A-	.	.	.	.
.	12F\J 12A-	.	.	.	.
.	12F\L 12A-	.	.	.	.
.	12F\ 12A-	.	.	.	.
.	.	.	8f/	-ją	.
.	12F\J 12A-	.	.	.	.
!!LO:LB:g=original
=7	=7	=7	=7	=7	=7
*xywh-3:127,3084,2741,552	*xywh-3:127,3084,2741,552	*	*xywh-3:150,2822,2698,279	*	*
4r	12G\L 12B-	.	2f/	lu-	.
.	12G\ 12B-	.	.	.	.
.	12G\J 12B-	.	.	.	.
(<4D-\	12G\L 12B-	.	.	.	.
.	12G\ 12B-	.	.	.	.
.	12G\J 12B-	.	.	.	.
2FF/)	12G\L 12B-	.	4en/	-bą	.
.	12G\ 12B-	.	.	.	.
.	12G\J 12B-	.	.	.	.
.	12A-\L 12c	.	8f/	w_łód-	.
.	12A-\ 12c	.	.	.	.
.	.	.	8f/	-ce	.
.	12A-\J 12c	.	.	.	.
=8	=8	=8	=8	=8	=8
4r	12B-\L 12d-	<	4g/	pły-	.
.	12B-\ 12d-	.	.	.	.
.	12B-\J 12d-	.	.	.	.
(<4F\	12A-\L 12d-	.	8a-/	-nę	.
.	12A-\ 12d-	.	.	.	.
.	.	.	8a-/	po	.
.	12A-\J 12d-	.	.	.	.
2FF/)	12G\L 12d-	.	[>4b-/	ja-	.
.	12G\ 12d-	.	.	.	.
.	12G\J 12d-	.	.	.	.
!	!	!	!LO:TUP:a:problem=klamra łukowa	!	!
.	12G\L 12B- 12d-	.	12b-/]	.	.
.	12G\ 12B- 12d-	.	12a-/	-snym	.
.	12G\J 12B- 12d-	[[	12g/	kry-	.
=9	=9	=9	=9	=9	=9
!	!	!	!	!	!LO:DY:a
4r	12En\L 12B- 12c	>	2cc\	-szta-	>
.	12E\ 12B- 12c	.	.	.	.
.	12E\J 12B- 12c	.	.	.	.
(<4C/	12E\L 12A- 12c	.	.	.	.
.	12E\ 12A- 12c	.	.	.	.
.	12E\J 12A- 12c	.	.	.	.
2CC/)	12E\L 12G 12c	.	4c/	-le	.
.	12E\ 12G 12c	.	.	.	.
.	12E\J 12G 12c	.	.	.	.
.	12E\L 12B- 12c	.	4r	.	]]
.	12E\ 12B- 12c	.	.	.	.
.	12E\J 12B- 12c	]]	.	.	.
!!LO:PB:g=original
=10	=10	=10	=10	=10	=10
*xywh-4:251,830,2733,537	*xywh-4:251,830,2733,537	*	*xywh-4:269,478,2681,376	*	*
!	!	!	!LO:TX:a:i:t=dolce.	!	!
4r	12F\L 12A- 12c	.	4r	.	.
.	12F\ 12A- 12c	.	.	.	.
.	12F\J 12A- 12c	.	.	.	.
(<4C/	12F\L 12A- 12c	.	(4cc\	Noc	.
.	12F\ 12A- 12c	.	.	.	.
.	12F\J 12A- 12c	.	.	.	.
2FF/)	12F\L 12A-	.	4.dd-\)	.	.
.	12F\ 12A-	.	.	.	.
.	12F\J 12A-	.	.	.	.
.	12F\L 12A-	.	.	.	.
.	12F\ 12A-	.	.	.	.
.	.	.	8f/	tak	.
.	12F\J 12A-	.	.	.	.
=11	=11	=11	=11	=11	=11
4r	12G\L 12B-	.	2f/	ci-	.
.	12G\ 12B-	.	.	.	.
.	12G\J 12B-	.	.	.	.
(<4D-\	12G\L 12B-	.	.	.	.
.	12G\ 12B-	.	.	.	.
.	12G\J 12B-	.	.	.	.
2FF/)	12G\L 12B-	.	4en/	-cha.	.
.	12G\ 12B-	.	.	.	.
.	12G\J 12B-	.	.	.	.
.	12A-\L 12c	.	8f/	nas	.
.	12A-\ 12c	.	.	.	.
.	.	.	8f/	sa-	.
.	12A-\J 12c	.	.	.	.
=12	=12	=12	=12	=12	=12
!	!	!	!	!	!LO:DY:a
4r	12B-\L 12d-	<	4g/	-mo-	<
.	12B-\ 12d-	.	.	.	.
.	12B-\J 12d-	.	.	.	.
(<4F\	12A-\L 12d-	.	4a-/	-tnych	.
.	12A-\ 12d-	.	.	.	.
.	12A-\J 12d-	.	.	.	.
2EE-/)	12G-X\L 12d-	.	8an/	Nio-	.
.	12G-\ 12d-	.	.	.	.
.	.	.	8a/	-są	.
.	12G-\J 12d-	.	.	.	.
.	12G-\L 12c	.	8a/	mor-	.
.	12G-\ 12c	.	.	.	.
.	.	.	8a/	-skie	[[
.	12G-\J 12c	[	.	.	.
!!LO:LB:g=original
=13	=13	=13	=13	=13	=13
*xywh-4:264,1587,2683,521	*xywh-4:264,1587,2683,521	*	*xywh-4:272,1297,2651,300	*	*
!	!	!	!LO:TX:a:i:t=espress&colon;	!	!
4r	12G-X\L 12B-	.	[4b-\	fa-	.
.	12G-\ 12B-	.	.	.	.
.	12G-\J 12B-	.	.	.	.
!	!	!	!LO:TUP:a:problem=klamra łukowa	!	!
(<4D-\	12G-\L 12B-	.	12b-\L]	.	.
.	12G-\ 12B-	.	12a-X\J	.	.
.	12G-\J 12B-	.	12g-X/	-le	.
!	!	!	!	!	!LO:DY:a
2DD-/)	12A-\L 12c-X	>	4g-/	nio-	>
.	12A-\ 12c-	.	.	.	.
.	12A-\J 12c-	.	.	.	.
.	12A-\L 12c-	.	4f/	-są	]]
.	12A-\ 12c-	.	.	.	.
.	12A-\J 12c-	]]	.	.	.
=14	=14	=14	=14	=14	=14
!	!	!	!	!	!LO:DY:a
4r	12Gn\L 12B-	<	(2.f/	fa-	<
.	12G\ 12B-	.	.	.	.
.	12G\J 12B-	.	.	.	.
(<4D-\	12G\L 12B-	.	.	.	.
.	12G\ 12B-	.	.	.	.
.	12G\J 12B-	[	.	.	.
(<2CC/)	12G\L 12B-	>	.	.	.
.	12G\ 12B-	.	.	.	.
.	12G\J 12B-	.	.	.	.
!	!	!	!	!	!LO:DY:a
.	12G\L 12B-	.	4en/)	.	[ > ]]
.	12G\ 12B-	.	.	.	.
.	12G\J 12B-	]]	.	.	.
=15	=15	=15	=15	=15	=15
*	*^	*	*	*	*
8FF/)	12F/L 12An	4ryy	.	2f/	-le	.
*	*clefG2	*	*	*	*	*
.	12F/ 12f	.	pp	.	.	.
8r	.	.	.	.	.	.
.	12F/J 12f	.	.	.	.	.
12FF/L	([4f/	4f\	.	.	.	.
12EEn/	.	.	.	.	.	.
12FF/J	.	.	.	.	.	.
!	!	!	!LO:HP:t=crescendo	!	!	!
12GG/L	4f/]	4en\	<	2r	.	.
12FF/	.	.	.	.	.	.
12GG/J	.	.	.	.	.	.
12AAn/L	4e-X/ [4cc	4ryy	.	.	.	.
12GG/	.	.	.	.	.	.
12AA/J	.	.	.	.	.	.
!!LO:LB:g=original
=16	=16	=16	=16	=16	=16	=16
*xywh-4:313,2350,2631,491	*xywh-4:313,2350,2631,491	*xywh-4:313,2350,2631,491	*	*xywh-4:264,2081,2684,286	*	*
!	!LO:TX:b:i:t=un poco.	!	!	!	!	!
12BB-/L	4dn/ 4cc])	4ryy	.	1r	.	.
12AAn/	.	.	.	.	.	.
12BB-/J	.	.	.	.	.	.
12C/L	2b-/	(4en\	.	.	.	.
12BBn/	.	.	.	.	.	.
12C/J	.	.	.	.	.	.
12Dn/L	.	4f\)	.	.	.	.
12C/	.	.	.	.	.	.
12D/J	.	.	.	.	.	.
12En\L	(>[<4c/ [<4g 4b-	4ryy	.	.	.	.
12D\	.	.	.	.	.	.
12E\J	.	.	.	.	.	.
*	*v	*v	*	*	*	*
=17||	=17||	=17||	=17||	=17||	=17||
*ok[cnenanb-]	*ok[cnenanb-]	*	*ok[cnenanb-]	*	*
*k[b-]	*k[b-]	*	*k[b-]	*	*
(<2F\	12c/L]) 12g] 12a	.	4r	.	.
.	12c/ 12g 12a	.	.	.	.
.	12c/J 12g 12a	.	.	.	.
!	!	!	!	!	!LO:DY:a:rj
.	12c/L 12g 12a	.	(2cc\	Wy-	p
.	12c/ 12g 12a	.	.	.	.
.	12c/J 12g 12a	.	.	.	.
2AA/	12c/L 12f 12cc	.	.	.	.
.	12c/ 12f 12cc	.	.	.	.
.	12c/J 12f 12cc	.	.	.	.
.	12c/L 12f 12cc	.	8b-\)	.	.
.	12c/ 12f 12cc	.	.	.	.
.	.	.	8a/	-spa	.
.	12c/J 12f 12cc	.	.	.	.
=18	=18	=18	=18	=18	=18
2BB-/	12d/L 12f	.	[2a/	du-	.
.	12d/ 12f	.	.	.	.
.	12d/J 12f	.	.	.	.
.	12d-X/L 12f	.	.	.	.
.	12d-/ 12f	.	.	.	.
.	12d-/J 12f	.	.	.	.
4C/	12c/L 12e	.	8a/]	.	.
.	12c/ 12e	.	.	.	.
.	.	.	8g/	-chów	.
.	12c/J 12e	.	.	.	.
4BB-/)	12c/L 12e 12g	.	8dd\	od	.
.	12c/ 12e 12g	.	.	.	.
.	.	.	8cc\	księ-	.
.	12c/J 12e 12g	.	.	.	.
!!LO:LB:g=original
=19	=19	=19	=19	=19	=19
*xywh-4:274,3127,2683,580	*xywh-4:274,3127,2683,580	*	*xywh-4:286,2843,2651,305	*	*
!	!	!	!LO:TX:a:i:t=espress&colon;	!	!
(<2AA/	12c/L 12f	<	[2cc\	-ży-	.
.	12F/ 12f	.	.	.	.
.	12F/J 12f	.	.	.	.
.	12F/L 12f	.	.	.	.
.	12F/ 12f	.	.	.	.
.	12F/J 12f	.	.	.	.
2E-X\	12F/L 12f	.	8cc\]	.	.
.	12F/ 12f	.	.	.	.
.	.	.	8bn\	-ca	.
.	12F/J 12f	.	.	.	.
.	12F/L 12f	.	8b-X\	bły-	.
.	12F/ 12f	.	.	.	.
.	.	.	8a/	-szczy	.
.	12F/J 12f	[[	.	.	.
=20	=20	=20	=20	=20	=20
4D\	12B-/L 12f	.	[2a/	się	.
.	12B-/ 12f	.	.	.	.
.	12B-/J 12f	.	.	.	.
4D-X\	12Bn/L 12f	.	.	.	.
.	12B/ 12f	.	.	.	.
.	12B/J 12f	.	.	.	.
4C/	12c/L 12f	.	8a/]	.	.
.	12c/ 12f	.	.	.	.
.	.	.	8g/	sre-	.
.	12c/J 12f	.	.	.	.
4BB-/)	12c/L 12e	.	8dd\L	-brzy-	.
.	12c/ 12e	.	.	.	.
.	.	.	8cc\J	.	.
.	12c/J 12e	.	.	.	.
=21	=21	=21	=21	=21	=21
!	!	!	!LO:TX:a:i:t=sonore.	!	!
8AA/	12c/L 12f	.	4cc\	-sta	.
.	12F/ 12f	.	.	.	.
8r	.	.	.	.	.
.	12F/J 12f	.	.	.	.
!	!LO:TX:b:t=cres_ _ _ cen_ _ _ do.:ext=ud:problem=dynamics with extention lines	!LO:HP:t=cres_ _ _ cen_ _ _ do.:ext=ud	!	!	!
(4AAA/ 4AA	12F/L 12e-X 12f	<	2f/	A	.
.	12F/ 12e- 12f	.	.	.	.
.	12F/J 12e- 12f	.	.	.	.
4CC/ 4C	12F/L 12e- 12f	.	.	.	.
.	12F/ 12e- 12f	.	.	.	.
.	12F/J 12e- 12f	.	.	.	.
4AAA/ 4AA	12F#X/L 12c 12e- 12f#X	.	4ee-X\	tam	.
.	12F#/ 12c 12e- 12f#	.	.	.	.
.	12F#/J 12c 12e- 12f#	.	.	.	.
!!LO:PB:g=original
=22	=22	=22	=22	=22	=22
*xywh-5:140,820,2750,538	*xywh-5:140,820,2750,538	*	*xywh-5:146,441,2721,404	*	*
4BBB-/ 4BB-	12G/L 12B- 12e-X 12g	.	(4ee-X\	dźwię-	.
.	12G/ 12B- 12e- 12g	.	.	.	.
.	12G/J 12B- 12e- 12g	.	.	.	.
4EE-X/ 4E-X	12G/L 12B-	.	[4g/)	.	.
.	12G/ 12B-	.	.	.	.
.	12G/J 12B-	.	.	.	.
4CC/ 4C	12A/L 12e-	.	8g/]	.	.
.	12A/ 12e-	.	.	.	.
.	.	.	8f#X/	-czą	.
.	12A/J 12e-	.	.	.	.
4DD/) 4D	12F#X/L 12c 12d	.	8b-/	lu-	.
.	12F#/ 12c 12d	.	.	.	.
.	.	.	8a/	-be	.
.	12F#/J 12c 12d	.	.	.	.
=23	=23	=23	=23	=23	=23
4GGG/ 4GG	12G/L 12c 12d	.	4a/	gło-	.
.	12G/ 12c 12d	.	.	.	.
.	12G/J 12c 12d	.	.	.	.
!	!	!	!LO:TX:a:t=cres _ cen _ do.:ext=ud:problem=dynamics with extention lines	!	!LO:HP:a:t=cres _ cen _ do.:ext=ud
(<4GG\ 4G	12B-/L 12d 12g	.	2g/	-sy	<
.	12B-/ 12d 12g	.	.	.	.
.	12B-/J 12d 12g	.	.	.	.
4DD/ 4D	12B-/L 12d 12g	.	.	.	.
.	12B-/ 12d 12g	.	.	.	.
.	12B-/J 12d 12g	.	.	.	.
4BBBn/ 4BBn	12G#X/L 12d 12f 12g#X	.	4ff\	tam	.
.	12G#/ 12d 12f 12g#	.	.	.	.
.	12G#/J 12d 12f 12g#	.	.	.	.
=24	=24	=24	=24	=24	=24
4CC/ 4C	12A/L 12c 12f 12a	.	(4ff\	dźwię-	.
.	12A/ 12c 12f 12a	.	.	.	.
.	12A/J 12c 12f 12a	.	.	.	.
4FF/ 4F	12A/L 12c	.	[4a/)	.	.
.	12A/ 12c	.	.	.	.
.	12A/J 12c	.	.	.	.
4DD/ 4D	12Bn/L 12f	.	8a/]	.	.
.	12B/ 12f	.	.	.	.
.	.	.	8g#X/	-czą	.
.	12B/J 12f	.	.	.	.
4EE/) 4E	12G#X/L 12d 12e	.	8cc\	lu-	.
.	12G#/ 12d 12e	.	.	.	.
.	.	.	8bn\	-be	[[
.	12G#/J 12d 12e	[[	.	.	.
!!LO:LB:g=original
=25	=25	=25	=25	=25	=25
*xywh-5:136,1568,2737,564	*xywh-5:136,1568,2737,564	*	*xywh-5:137,1308,2719,295	*	*
4AAA/ 4AA	12A/L 12d 12e	.	4bn\	gło-	.
.	12A/ 12d 12e	.	.	.	.
.	12A/J 12d 12e	.	.	.	.
(<4AA\ 4A	12c/L 12e 12a	.	[>4a/	-sy	.
.	12c/ 12e 12a	.	.	.	.
!	!	!LO:HP:t=dimin&colon;	!	!	!
.	12c/J 12e 12a	>	.	.	.
!	!	!	!	!	!LO:HP:a:t=dimin&colon;
4EE/ 4E	12c/L 12e 12a	.	8a/]	.	>
.	12c/ 12e 12a	.	.	.	.
.	.	.	8a/L	Plą-	.
.	12c/J 12e 12a	.	.	.	.
4FF#X/ 4F#X	12c/L 12d 12a	.	8b/J	.	.
.	12c/ 12d 12a	.	.	.	.
.	.	.	8a/	-sa	.
.	12c/J 12d 12a	.	.	.	.
=26	=26	=26	=26	=26	=26
4GG/) 4G	12c/L 12e 12g	pp	4g/	mgła	.
.	12c/ 12e 12g	.	.	.	.
.	12c/J 12e 12g	.	.	.	.
4GGG/ 4GG	12c/L 12e 12g	.	4g/	przej-	.
.	12c/ 12e 12g	.	.	.	.
.	12c/J 12e 12g	.	.	.	.
!	!	!	!LO:N:vis=4	!	!
(<2GG\ 2G	12c/L 12f 12g	.	(4.dd\	-rzy-	.
.	12c/ 12f 12g	.	.	.	.
.	12c/J 12f 12g	.	.	.	.
.	12Bn/L 12f 12g	.	.	.	.
.	12B/ 12f 12g	.	.	.	.
.	.	.	8cc\)	.	.
.	12B/J 12f 12g	.	.	.	.
=27	=27	=27	=27	=27	=27
*	*^	*	*	*	*
8C/)	12c/L 12e 12g	4ryy	.	2cc\	-sta	.
.	12c/	.	.	.	.	.
8r	.	.	.	.	.	.
.	12c/J	.	.	.	.	.
*	*clefF4	*	*	*	*	*
(12CC/L	4rG	[<2.C\ [>2.c	<	.	.	.
12BBBn/	.	.	.	.	.	.
12CC/J	.	.	.	.	.	.
12DD-X/L	(>4F/	.	.	2r	.	.
12CC/	.	.	.	.	.	.
12DD-/J	.	.	.	.	.	.
12DDn/L	4F#X/	.	.	.	.	.
12CC/	.	.	.	.	.	.
12DD/J	.	.	[[	.	.	.
!!LO:LB:g=original
=28	=28	=28	=28	=28	=28	=28
*xywh-5:123,2353,2763,541	*xywh-5:123,2353,2763,541	*xywh-5:123,2353,2763,541	*	*xywh-5:135,2093,2713,306	*	*
8EE-X/)	12C\L]) 12G 12c]	4ryy	.	1r	.	.
.	12C\ 12c	.	.	.	.	.
!LO:TX:b:i:t=stringendo.	!	!	!	!	!	!
8r	.	.	.	.	.	.
.	12C\J 12c	.	.	.	.	.
(12EEn/L	4rG	[<2.C\ [>2.c	.	.	.	.
12DD/	.	.	.	.	.	.
12EE/J	.	.	.	.	.	.
12FF/L	(>4A-X/	.	.	.	.	.
12EE/	.	.	.	.	.	.
12FF/J	.	.	.	.	.	.
12FF#X/L	4An/	.	.	.	.	.
12EE/	.	.	.	.	.	.
12FF#/J	.	.	.	.	.	.
=29	=29	=29	=29	=29	=29	=29
8GG/)	12C\L]) 12B- 12c]	4ryy	.	1r	.	.
.	12C\ 12c	.	.	.	.	.
8r	.	.	.	.	.	.
.	12C\J 12c	.	.	.	.	.
(12BB-/L	[>2.c/	4C\ 4E	sf	.	.	.
!LO:TX:a:i:t=riten&colon;	!	!	!	!	!	!
12AA/	.	.	.	.	.	.
12BB-/J	.	.	.	.	.	.
2CC/)	.	4D\ 4F	.	.	.	.
.	.	4E\ 4G	.	.	.	.
*	*v	*v	*	*	*	*
=30||	=30||	=30||	=30||	=30||	=30||
*k[b-e-a-d-]	*k[b-e-a-d-]	*	*k[b-e-a-d-]	*	*
!LO:TX:a:B:t=a tempo.	!	!	!	!	!
4r	12F\L 12A- 12c]	pp	4r	.	.
.	12F\ 12A- 12c	.	.	.	.
.	12F\J 12A- 12c	.	.	.	.
!	!	!	!	!	!LO:DY:a:rj
(<4C/	12F\L 12A- 12c	.	(4cc\	A	p
.	12F\ 12A- 12c	.	.	.	.
.	12F\J 12A- 12c	.	.	.	.
!	!	!	!LO:TX:a:i:t=un poco	!	!LO:HP:a
2FF/)	12F\L 12A-	.	4.dd-\)	.	<
.	12F\ 12A-	.	.	.	.
.	12F\J 12A-	.	.	.	.
.	12F\L 12A-	.	.	.	.
.	12F\ 12A-	.	.	.	.
.	.	.	8f/	tam	[[
.	12F\J 12A-	.	.	.	.
!!LO:LB:g=original
=31	=31	=31	=31	=31	=31
*xywh-5:140,3154,2704,594	*xywh-5:140,3154,2704,594	*	*xywh-5:126,2826,2713,330	*	*
!	!	!	!	!	!LO:HP:a
4r	12F\L 12G 12B-	.	2f/	dźwię-	>
.	12F\ 12G 12B-	.	.	.	.
.	12F\J 12G 12B-	.	.	.	.
(<4D-\	12F\L 12G 12B-	.	.	.	.
.	12F\ 12G 12B-	.	.	.	.
.	12F\J 12G 12B-	.	.	.	.
2FF/)	12F\L 12G 12B-	.	4en/	-czy	.
.	12F\ 12G 12B-	.	.	.	.
.	12F\J 12G 12B-	.	.	.	.
!	!	!	!	!	!LO:DY:a:rj
.	12En\L 12G 12B-	.	8b-\	co-	] p
.	12E\ 12G 12B-	.	.	.	.
.	.	.	8b-\	-raz	.
.	12E\J 12G 12B-	.	.	.	.
=32	=32	=32	=32	=32	=32
!	!	!	!	!	!LO:HP:a
4r	12E-X\L 12G-X 12c	<	4b-\	mi-	<
.	12E-\ 12G- 12c	.	.	.	.
.	12E-\J 12G- 12c	.	.	.	.
(<4C/	12E-\L 12G- 12c	.	8an/	-léj	.
.	12E-\ 12G- 12c	.	.	.	.
.	.	.	8a/	I	.
.	12E-\J 12G- 12c	.	.	.	.
2BBB-/)	12D-\L 12G- 12d-	.	[4b-\	mgła	.
.	12D-\ 12G- 12d-	.	.	.	.
.	12D-\J 12G- 12d-	.	.	.	.
!	!	!	!LO:TUP:a:problem=klamra łukowa	!	!
.	12G-\L 12B-	.	12b-/]	.	.
.	12G-\ 12B-	.	12a-X/	plą-	.
.	12G-\J 12B-	[	12g-X/	-sa	[[
=33	=33	=33	=33	=33	=33
!	!	!	!	!	!LO:HP:a
4r	12Gn\L 12B-	>	2f/	w_bie-	>
.	12G\ 12B-	.	.	.	.
.	12G\J 12B-	.	.	.	.
(<4D-\	12G\L 12B-	.	.	.	.
.	12G\ 12B-	.	.	.	.
.	12G\J 12B-	.	.	.	.
2CC/)	12G\L 12B-	.	4en/	-li	.
.	12G\ 12B-	.	.	.	.
.	12G\J 12B-	.	.	.	.
.	12G\L 12B-	.	4r	.	]
.	12G\ 12B-	.	.	.	.
.	12G\J 12B-	]]	.	.	.
!!LO:PB:g=original
=34	=34	=34	=34	=34	=34
*^	*	*	*	*	*
*xywh-6:218,769,2706,521	*xywh-6:218,769,2706,521	*xywh-6:218,769,2706,521	*	*xywh-6:249,407,2654,376	*	*
12r	2ryy	12F\ 12An	.	1r	.	.
12F\L	.	12r	.	.	.	.
12F\J	.	12r	.	.	.	.
*	*	*clefG2	*	*	*	*
12F\L	.	(4c/ 4cc	.	.	.	.
12F\	.	.	.	.	.	.
12F\J	.	.	.	.	.	.
!LO:N:vis=2	!	!LO:TX:b:i:t=espress.	!	!	!	!
12AAn/L	2AA\	4.e-/ 4.ee-	.	.	.	.
12F/	.	.	.	.	.	.
12F/J	.	.	.	.	.	.
12F/L	.	.	.	.	.	.
12F/	.	.	.	.	.	.
.	.	8dn/) 8ddn	.	.	.	.
12F/J	.	.	.	.	.	.
=35	=35	=35	=35	=35	=35	=35
*	*	*^	*	*	*	*
*	*	*	*xywh-6:218,769,2706,521	*	*	*	*
12BB-/L	[2BB-\	8dn/ 8ddn	4ryy	.	4r	.	.
12F/	.	.	.	.	.	.	.
.	.	8r	.	.	.	.	.
12F/J	.	.	.	.	.	.	.
12F/L	.	[4g^/	2.B-\ 2.d-X	.	8g/	My	.
12F/	.	.	.	.	.	.	.
.	.	.	.	.	8g/	sa-	.
12F/J	.	.	.	.	.	.	.
12F/L	2BB-\]	8g/L]	.	.	2a-/	-mo-	.
12F/	.	.	.	.	.	.	.
!	!	!	!	!LO:HP:a	!	!	!
.	.	(<8g'</	.	>	.	.	.
12F/J	.	.	.	.	.	.	.
12F/L	.	8f'</	.	.	.	.	.
12F/	.	.	.	.	.	.	.
.	.	8en'</J)	.	.	.	.	.
[12F/J	.	.	.	.	.	.	.
*	*	*v	*v	*	*	*	*
=36	=36	=36	=36	=36	=36	=36
12F/L]	8FF\	8An/ 8c 8an	]	2an/	-tni	.
12F/	.	.	.	.	.	.
.	8r	8r	.	.	.	.
12F/J	.	.	.	.	.	.
12F/L	4ryy	(4c/ 4cc	.	.	.	.
12F/	.	.	.	.	.	.
12F/J	.	.	.	.	.	.
!LO:N:vis=2	!	!	!LO:HP:a	!	!	!
12AAn/L	2AA\	4.e-/ 4.ee-	<	2r	.	.
12F/	.	.	.	.	.	.
12F/J	.	.	.	.	.	.
12F/L	.	.	.	.	.	.
12F/	.	.	.	.	.	.
.	.	8dn/) 8ddn	[[	.	.	.
12F/J	.	.	.	.	.	.
!!LO:LB:g=original
=37	=37	=37	=37	=37	=37	=37
*	*	*^	*	*	*	*
*xywh-6:231,1495,2692,551	*xywh-6:231,1495,2692,551	*xywh-6:231,1495,2692,551	*xywh-6:231,1495,2692,551	*	*xywh-6:287,1218,2629,311	*	*
!LO:N:vis=2	!	!	!	!	!	!	!
12BB-/L	[2BB-\	8dn/ 8ddn	4ryy	.	4r	.	.
12F/	.	.	.	.	.	.	.
.	.	8r	.	.	.	.	.
12F/J	.	.	.	.	.	.	.
!	!	!LO:TX:a:i:t=poco	!	!LO:DY:a	!	!	!
12F/L	.	[4g/	2B-\ 2d-X	sf	8b-\	My	.
12F/	.	.	.	.	.	.	.
.	.	.	.	.	8b-\	sa-	.
12F/J	.	.	.	.	.	.	.
12F/L	2BB-\]	8g/L]	.	.	2dd-X\	-mo-	.
12F/	.	.	.	.	.	.	.
.	.	(<8g'</	.	.	.	.	.
12F/J	.	.	.	.	.	.	.
12F/L	.	8f'</	4ryy	.	.	.	.
12F/	.	.	.	.	.	.	.
.	.	8en'</J)	.	.	.	.	.
[>12F/J	.	.	.	.	.	.	.
*	*	*v	*v	*	*	*	*
=38	=38	=38	=38	=38	=38	=38
12F/L]	8FF\	8An/ 8c 8an	.	2cc\	-tni	.
12F/	.	.	.	.	.	.
.	8r	8r	.	.	.	.
12F/J	.	.	.	.	.	.
12F/L	4ryy	4c/ 4cc	.	.	.	.
12F/	.	.	.	.	.	.
12F/J	.	.	.	.	.	.
!	!	!LO:TX:a:i:t=molto espress.	!	!	!	!
12AAn/L	4AA\	4e-\ 4ee-	.	4r	.	.
12F/	.	.	.	.	.	.
12F/J	.	.	.	.	.	.
!	!	!	!	!LO:TX:a:i:t=espress	!	!
12E-/L	4E-\	(4An/ 4an	.	8cc\	Bez	.
12F/	.	.	.	.	.	.
.	.	.	.	8cc\	po-	.
12F/J	.	.	.	.	.	.
=39	=39	=39	=39	=39	=39	=39
!LO:N:vis=2	!	!	!	!LO:TX:a:i:t=molto.	!	!
12Dn/L	2D\	4c/ 4cc	.	(2ff\	-cie-	.
12F/	.	.	.	.	.	.
12F/J	.	.	.	.	.	.
12F/L	.	4B-/) 4b-	.	.	.	.
12F/	.	.	.	.	.	.
12F/J	.	.	.	.	.	.
!LO:N:vis=2	!	!	!	!	!	!
12D-X/L	2D-\	8r	.	8g/)	-chy	.
12F/	.	.	.	.	.	.
.	.	(8B-/L 8b-	.	8g/L	bez	.
12F/J	.	.	.	.	.	.
12F/L	.	8An/) 8an	.	8an/J	.	.
12F/	.	.	.	.	.	.
.	.	8G'/J 8g	.	8b-\	po-	.
12F/J	.	.	.	.	.	.
!!LO:LB:g=original
=40	=40	=40	=40	=40	=40	=40
*xywh-6:237,2284,2717,573	*xywh-6:237,2284,2717,573	*xywh-6:237,2284,2717,573	*	*xywh-6:219,1991,2709,330	*	*
!LO:N:vis=2	!	!	!	!	!	!
12C/L	[2C\	(4B-/ 4b-	.	2cc\	-cie-	.
12F/	.	.	.	.	.	.
12F/J	.	.	.	.	.	.
12F/L	.	4An/) 4an	.	.	.	.
12F/	.	.	.	.	.	.
12F/J	.	.	.	.	.	.
8F/	12C\L]	8r	.	8f/	-chy	.
.	12C\	.	.	.	.	.
4.ryy	.	(8A/L 8a	.	8f/L	Mi-	.
.	12C\J	.	.	.	.	.
.	12C\L	8G/) 8g	.	8g/J	.	.
.	12C\	.	.	.	.	.
.	.	8F/J 8f	.	8an/	-mo	.
.	12C\J	.	.	.	.	.
*v	*v	*	*	*	*	*
=41	=41	=41	=41	=41	=41
(12C\L	8G/ 8f 8g	.	4b-\	prze-	.
12CC\)	.	.	.	.	.
.	8r	.	.	.	.
12CC\J	.	.	.	.	.
!	!	!LO:HP:a	!	!	!
!	!LO:SIC:v:n=3:s=(<2Dn</	!LO:DY:a	!	!	!
12CC\L	(<2D-</ 2B- 2dn	sf >	4b-\	-pły-	.
12CC\	.	.	.	.	.
12CC\J	.	.	.	.	.
12CC\L	.	.	(4.an/	-ne-	.
12CC\	.	.	.	.	.
12CC\J	.	.	.	.	.
12CC\L	4En</) 4B- 4en	]]	.	.	.
12CC\	.	.	.	.	.
.	.	.	8g/)	.	.
12CC\J	.	.	.	.	.
=42	=42	=42	=42	=42	=42
*	*^	*	*	*	*
*	*	*xywh-6:237,2284,2717,573	*	*	*	*
!	!	!	!	!	!	!LO:HP:a
8FF\	12F</L 12An 12f	2ryy	.	[1f	-li.	<
.	12f/	.	.	.	.	.
8r	.	.	.	.	.	.
.	12f/J	.	.	.	.	.
(<12FF/L	[>4f/	.	p	.	.	.
12EEn/	.	.	.	.	.	.
12FF/J	.	.	.	.	.	.
12GG/L	4f/]	4en\	.	.	.	.
12FF/	.	.	.	.	.	.
12GG/J	.	.	.	.	.	.
12AAn/L	[4cc/	4e-X\	.	.	.	.
12GG/	.	.	.	.	.	.
12AA/J	.	.	.	.	.	[
*	*v	*v	*	*	*	*
!!LO:LB:g=original
=43	=43	=43	=43	=43	=43
*xywh-6:245,3043,2722,775	*xywh-6:245,3043,2722,775	*	*xywh-6:287,2781,2583,275	*	*
12BB-/L	4dn/ 4cc]	<	4f/]	.	.
12AAn/	.	.	.	.	.
12BB-/J	.	.	.	.	.
12C/L	4en/ [>4b-	.	4r	.	.
12BBn/	.	.	.	.	.
12C/J	.	.	.	.	.
12Dn/L	4f/ 4b-]	.	2r	.	.
12C/	.	.	.	.	.
12D/J	.	.	.	.	.
12En/L	(>[<4c/ [<4g 4b-	[	.	.	.
12D/	.	.	.	.	.
12E/J)	.	.	.	.	.
=44	=44	=44	=44	=44	=44
(12F\L	2c/]) 2g] 2an	.	1r	.	.
12En\	.	.	.	.	.
12F\J	.	.	.	.	.
8FF/)	.	.	.	.	.
8r	.	.	.	.	.
(12FF/L	2d-X/ 2f 2a-X	.	.	.	.
12EEn/	.	.	.	.	.
12FF/J	.	.	.	.	.
8FFF/)	.	.	.	.	.
8r	.	.	.	.	.
=45	=45	=45	=45	=45	=45
!	!	!LO:HP:a:t=sempre dimin.	!	!	!
(12F\L	(2Bn/ 2dn 2g	>	1r	.	.
12En\	.	.	.	.	.
12F\J	.	.	.	.	.
8FF/)	.	.	.	.	.
8r	.	.	.	.	.
!	!	!LO:DY:a	!	!	!
(12FF/L	2G/ 2B-X 2d-X 2en	.	.	.	.
12EEn/	.	.	.	.	.
12FF/J	.	.	.	.	.
8FFF/)	.	.	.	.	.
8r	.	.	.	.	.
=46	=46	=46	=46	=46	=46
12r	2.An/) 2.c 2.f	.	1r	.	.
(12En\L	.	.	.	.	.
12F\J	.	.	.	.	.
(12FF/L)	.	.	.	.	.
12EEn/	.	.	.	.	.
12FF/J	.	.	.	.	.
8FFF/)	.	.	.	.	.
8r	.	.	.	.	.
*	*clefF4	*	*	*	*
4FFF/ 4FF	4C\ 4F 4An 4c	ppp	.	.	.
=47	=47	=47	=47	=47	=47
1FFF;< 1FF	1C;> 1F 1An	.	1r;>	.	.
==	==	==	==	==	==
*-	*-	*-	*-	*-	*-
!!!system-decoration: s1{(s2,s3)}
!!!RDF**kern: < = below
!!!RDF**kern: > = above
!!!ENC: Filip Voros
!!!END: 2022-03-25
!!!ENC: Marta Chmielewska
!!!END: 2022-03-27
!!!ENC-iiif: Emilia Ziętek
!!!END-iiif: 2022-08-23
!!!YEC: Copyright 2022 Narodowy Instytut Fryderyka Chopina (https://polishscores.org)
!!!YEM: License CC-BY-4.0 (https://creativecommons.org/licenses/by/4.0)
